Numix-Circle/48x48/apps/cpuinfo.svg

<svg xmlns="http://www.w3.org/2000/svg" xmlns:xlink="http://www.w3.org/1999/xlink" width="48" viewBox="0 0 13.546667 13.546667" height="48">
 <defs>
  <linearGradient id="0">
   <stop stop-color="#b58900"/>
   <stop offset="1" stop-color="#f2b700"/>
  </linearGradient>
  <linearGradient xlink:href="#0" id="1" gradientUnits="userSpaceOnUse" gradientTransform="matrix(1.10528,0,0,1.10528,-134.28255,-295.77083)" y1="279.1" x2="0" y2="268.33"/>
 </defs>
 <rect height="12.982" rx="6.491" y="0.282" x="0.282" width="12.982" opacity="0.5" fill="#ffffff" fill-rule="evenodd"/>
 <rect height="11.853" rx="5.926" y="0.847" x="0.847" width="11.853" fill="url(#1)" fill-rule="evenodd"/>
 <g transform="translate(3.8858025e-4,-3.9513112e-4)" fill="#f2f2f2">
  <g>
   <path transform="matrix(0.28222223,0,0,0.28222223,-3.8860025e-4,3.9511112e-4)" d="M 19.875,9 C 19.384252,9 19,9.384252 19,9.875 L 19,13 17.34375,13 c -2.39803,0 -4.3125,1.91447 -4.3125,4.3125 l 0,0.6875 L 9.875,18 C 9.384252,18 9,18.384252 9,18.875 l 0,0.25 C 9,19.615748 9.384252,20 9.875,20 l 3.15625,0 0,2 L 9.875,22 C 9.384252,22 9,22.384252 9,22.875 l 0,0.25 C 9,23.615748 9.384252,24 9.875,24 l 3.15625,0 0,2 L 9.875,26 C 9.384252,26 9,26.384252 9,26.875 l 0,0.25 C 9,27.615748 9.384252,28 9.875,28 l 3.15625,0 0,2.6875 c 0,2.39803 1.91447,4.3125 4.3125,4.3125 L 19,35 19,38.125 C 19,38.615748 19.384252,39 19.875,39 l 0.25,0 C 20.615748,39 21,38.615748 21,38.125 L 21,35 l 2,0 0,3.125 C 23,38.615748 23.384252,39 23.875,39 l 0.25,0 C 24.615748,39 25,38.615748 25,38.125 L 25,35 l 2,0 0,3.125 C 27,38.615748 27.384252,39 27.875,39 l 0.25,0 C 28.615748,39 29,38.615748 29,38.125 L 29,35 30.6875,35 C 33.08553,35 35,33.08553 35,30.6875 L 35,28 38.125,28 C 38.615748,28 39,27.615748 39,27.125 l 0,-0.25 C 39,26.384252 38.615748,26 38.125,26 L 35,26 l 0,-2 3.125,0 C 38.615748,24 39,23.615748 39,23.125 l 0,-0.25 C 39,22.384252 38.615748,22 38.125,22 L 35,22 l 0,-2 3.125,0 C 38.615748,20 39,19.615748 39,19.125 l 0,-0.25 C 39,18.384252 38.615748,18 38.125,18 L 35,18 35,17.3125 C 35,14.91447 33.08553,13 30.6875,13 L 29,13 29,9.875 C 29,9.384252 28.615748,9 28.125,9 l -0.25,0 C 27.384252,9 27,9.384252 27,9.875 L 27,13 25,13 25,9.875 C 25,9.384252 24.615748,9 24.125,9 l -0.25,0 C 23.384252,9 23,9.384252 23,9.875 L 23,13 21,13 21,9.875 C 21,9.384252 20.615748,9 20.125,9 l -0.25,0 z m -1.34375,6 10.9375,0 C 31.43056,15 33,16.56944 33,18.53125 l 0,10.9375 C 33,31.43056 31.43056,33 29.46875,33 l -10.9375,0 c -1.96181,0 -3.5,-1.56944 -3.5,-3.53125 l 0,-10.9375 c 0,-1.96181 1.53819,-3.53125 3.5,-3.53125 z"/>
   <path d="m 5.576686,4.798173 c -0.4305552,0 -0.774531,0.3439758 -0.774531,0.774531 l 0,2.39899 c 0,0.4305552 0.3439758,0.774531 0.774531,0.774531 l 2.39899,0 c 0.4305552,0 0.774531,-0.3439758 0.774531,-0.774531 l 0,-2.39899 c 0,-0.4305552 -0.3439758,-0.774531 -0.774531,-0.774531 l -2.39899,0 z"/>
  </g>
 </g>
</svg>

<svg viewBox="0 0 48 48"><defs><linearGradient id="linearGradient3764" x1="1" x2="47" gradientUnits="userSpaceOnUse" gradientTransform="matrix(0,-1,1,0,-1.5e-6,47.999998)"><stop stop-color="#dea700" stop-opacity="1"/><stop offset="1" stop-color="#f2b700" stop-opacity="1"/></linearGradient><clipPath id="clipPath-733628031"><g transform="translate(0,-1004.3622)"><path d="m -24 13 c 0 1.105 -0.672 2 -1.5 2 -0.828 0 -1.5 -0.895 -1.5 -2 0 -1.105 0.672 -2 1.5 -2 0.828 0 1.5 0.895 1.5 2 z" transform="matrix(15.333333,0,0,11.5,414.99999,878.8622)" fill="#1890d0"/></g></clipPath><clipPath id="clipPath-741950758"><g transform="translate(0,-1004.3622)"><path d="m -24 13 c 0 1.105 -0.672 2 -1.5 2 -0.828 0 -1.5 -0.895 -1.5 -2 0 -1.105 0.672 -2 1.5 -2 0.828 0 1.5 0.895 1.5 2 z" transform="matrix(15.333333,0,0,11.5,414.99999,878.8622)" fill="#1890d0"/></g></clipPath></defs><g><g transform="translate(0,-1004.3622)"><path d="m 25 1006.36 c -12.703 0 -23 10.298 -23 23 0 6.367 2.601 12.12 6.781 16.281 4.085 3.712 9.514 5.969 15.469 5.969 12.703 0 23 -10.297 23 -23 0 -5.954 -2.256 -11.384 -5.969 -15.469 -4.165 -4.181 -9.914 -6.781 -16.281 -6.781 z m 16.281 6.781 c 3.854 4.113 6.219 9.637 6.219 15.719 0 12.703 -10.297 23 -23 23 -6.081 0 -11.606 -2.364 -15.719 -6.219 4.16 4.144 9.883 6.719 16.219 6.719 12.703 0 23 -10.297 23 -23 0 -6.335 -2.575 -12.06 -6.719 -16.219 z" opacity="0.05"/><path d="m 41.28 1013.14 c 3.712 4.085 5.969 9.514 5.969 15.469 0 12.703 -10.297 23 -23 23 -5.954 0 -11.384 -2.256 -15.469 -5.969 4.113 3.854 9.637 6.219 15.719 6.219 12.703 0 23 -10.297 23 -23 0 -6.081 -2.364 -11.606 -6.219 -15.719 z" opacity="0.1"/><path transform="matrix(15.333333,0,0,11.5,415.24999,879.11222)" d="m -24 13 a 1.5 2 0 1 1 -3 0 1.5 2 0 1 1 3 0 z" opacity="0.2"/></g></g><g><path d="m 24 1 c 12.703 0 23 10.297 23 23 c 0 12.703 -10.297 23 -23 23 -12.703 0 -23 -10.297 -23 -23 0 -12.703 10.297 -23 23 -23 z" fill="url(#linearGradient3764)" fill-opacity="1"/></g><g/><g><g clip-path="url(#clipPath-733628031)"><g transform="translate(0,1)"><g opacity="0.1"><!-- color: #f2b700 --><g><path d="m 19.875 9 c -0.492 0 -0.875 0.383 -0.875 0.875 l 0 3.125 l -1.656 0 c -2.398 0 -4.313 1.914 -4.313 4.313 l 0 0.688 l -3.156 0 c -0.492 0 -0.875 0.387 -0.875 0.875 l 0 0.25 c 0 0.492 0.383 0.875 0.875 0.875 l 3.156 0 l 0 2 l -3.156 0 c -0.492 0 -0.875 0.387 -0.875 0.875 l 0 0.25 c 0 0.492 0.383 0.875 0.875 0.875 l 3.156 0 l 0 2 l -3.156 0 c -0.492 0 -0.875 0.387 -0.875 0.875 l 0 0.25 c 0 0.492 0.383 0.875 0.875 0.875 l 3.156 0 l 0 2.688 c 0 2.398 1.914 4.316 4.313 4.316 l 1.656 0 l 0 3.125 c 0 0.488 0.383 0.875 0.875 0.875 l 0.25 0 c 0.492 0 0.875 -0.387 0.875 -0.875 l 0 -3.125 l 2 0 l 0 3.125 c 0 0.488 0.383 0.875 0.875 0.875 l 0.25 0 c 0.492 0 0.875 -0.387 0.875 -0.875 l 0 -3.125 l 2 0 l 0 3.125 c 0 0.488 0.383 0.875 0.875 0.875 l 0.25 0 c 0.492 0 0.875 -0.387 0.875 -0.875 l 0 -3.125 l 1.688 0 c 2.398 0 4.313 -1.914 4.313 -4.316 l 0 -2.688 l 3.125 0 c 0.492 0 0.875 -0.383 0.875 -0.875 l 0 -0.25 c 0 -0.488 -0.383 -0.875 -0.875 -0.875 l -3.125 0 l 0 -2 l 3.125 0 c 0.492 0 0.875 -0.383 0.875 -0.875 l 0 -0.25 c 0 -0.488 -0.383 -0.875 -0.875 -0.875 l -3.125 0 l 0 -2 l 3.125 0 c 0.492 0 0.875 -0.383 0.875 -0.875 l 0 -0.25 c 0 -0.488 -0.383 -0.875 -0.875 -0.875 l -3.125 0 l 0 -0.688 c 0 -2.398 -1.914 -4.313 -4.313 -4.313 l -1.688 0 l 0 -3.125 c 0 -0.492 -0.383 -0.875 -0.875 -0.875 l -0.25 0 c -0.492 0 -0.875 0.383 -0.875 0.875 l 0 3.125 l -2 0 l 0 -3.125 c 0 -0.492 -0.383 -0.875 -0.875 -0.875 l -0.25 0 c -0.492 0 -0.875 0.383 -0.875 0.875 l 0 3.125 l -2 0 l 0 -3.125 c 0 -0.492 -0.383 -0.875 -0.875 -0.875 m -1.594 6 l 10.938 0 c 1.961 0 3.531 1.57 3.531 3.531 l 0 10.938 c 0 1.961 -1.57 3.531 -3.531 3.531 l -10.938 0 c -1.961 0 -3.5 -1.57 -3.5 -3.531 l 0 -10.938 c 0 -1.961 1.539 -3.531 3.5 -3.531 m 0 0" fill="#000" stroke="none" fill-rule="nonzero" fill-opacity="1"/><path d="m 19.762 17 c -1.527 0 -2.746 1.219 -2.746 2.746 l 0 8.5 c 0 1.527 1.219 2.746 2.746 2.746 l 8.5 0 c 1.527 0 2.746 -1.219 2.746 -2.746 l 0 -8.5 c 0 -1.527 -1.219 -2.746 -2.746 -2.746 m -8.5 0" fill="#000" stroke="none" fill-rule="nonzero" fill-opacity="1"/></g></g></g></g></g><g><g clip-path="url(#clipPath-741950758)"><!-- color: #f2b700 --><g><path d="m 19.875 9 c -0.492 0 -0.875 0.383 -0.875 0.875 l 0 3.125 l -1.656 0 c -2.398 0 -4.313 1.914 -4.313 4.313 l 0 0.688 l -3.156 0 c -0.492 0 -0.875 0.387 -0.875 0.875 l 0 0.25 c 0 0.492 0.383 0.875 0.875 0.875 l 3.156 0 l 0 2 l -3.156 0 c -0.492 0 -0.875 0.387 -0.875 0.875 l 0 0.25 c 0 0.492 0.383 0.875 0.875 0.875 l 3.156 0 l 0 2 l -3.156 0 c -0.492 0 -0.875 0.387 -0.875 0.875 l 0 0.25 c 0 0.492 0.383 0.875 0.875 0.875 l 3.156 0 l 0 2.688 c 0 2.398 1.914 4.316 4.313 4.316 l 1.656 0 l 0 3.125 c 0 0.488 0.383 0.875 0.875 0.875 l 0.25 0 c 0.492 0 0.875 -0.387 0.875 -0.875 l 0 -3.125 l 2 0 l 0 3.125 c 0 0.488 0.383 0.875 0.875 0.875 l 0.25 0 c 0.492 0 0.875 -0.387 0.875 -0.875 l 0 -3.125 l 2 0 l 0 3.125 c 0 0.488 0.383 0.875 0.875 0.875 l 0.25 0 c 0.492 0 0.875 -0.387 0.875 -0.875 l 0 -3.125 l 1.688 0 c 2.398 0 4.313 -1.914 4.313 -4.316 l 0 -2.688 l 3.125 0 c 0.492 0 0.875 -0.383 0.875 -0.875 l 0 -0.25 c 0 -0.488 -0.383 -0.875 -0.875 -0.875 l -3.125 0 l 0 -2 l 3.125 0 c 0.492 0 0.875 -0.383 0.875 -0.875 l 0 -0.25 c 0 -0.488 -0.383 -0.875 -0.875 -0.875 l -3.125 0 l 0 -2 l 3.125 0 c 0.492 0 0.875 -0.383 0.875 -0.875 l 0 -0.25 c 0 -0.488 -0.383 -0.875 -0.875 -0.875 l -3.125 0 l 0 -0.688 c 0 -2.398 -1.914 -4.313 -4.313 -4.313 l -1.688 0 l 0 -3.125 c 0 -0.492 -0.383 -0.875 -0.875 -0.875 l -0.25 0 c -0.492 0 -0.875 0.383 -0.875 0.875 l 0 3.125 l -2 0 l 0 -3.125 c 0 -0.492 -0.383 -0.875 -0.875 -0.875 l -0.25 0 c -0.492 0 -0.875 0.383 -0.875 0.875 l 0 3.125 l -2 0 l 0 -3.125 c 0 -0.492 -0.383 -0.875 -0.875 -0.875 m -1.594 6 l 10.938 0 c 1.961 0 3.531 1.57 3.531 3.531 l 0 10.938 c 0 1.961 -1.57 3.531 -3.531 3.531 l -10.938 0 c -1.961 0 -3.5 -1.57 -3.5 -3.531 l 0 -10.938 c 0 -1.961 1.539 -3.531 3.5 -3.531 m 0 0" fill="#f2f2f2" stroke="none" fill-rule="nonzero" fill-opacity="1"/><path d="m 19.762 17 c -1.527 0 -2.746 1.219 -2.746 2.746 l 0 8.5 c 0 1.527 1.219 2.746 2.746 2.746 l 8.5 0 c 1.527 0 2.746 -1.219 2.746 -2.746 l 0 -8.5 c 0 -1.527 -1.219 -2.746 -2.746 -2.746 m -8.5 0" fill="#f2f2f2" stroke="none" fill-rule="nonzero" fill-opacity="1"/></g></g></g><g><path d="m 40.03 7.531 c 3.712 4.084 5.969 9.514 5.969 15.469 0 12.703 -10.297 23 -23 23 c -5.954 0 -11.384 -2.256 -15.469 -5.969 4.178 4.291 10.01 6.969 16.469 6.969 c 12.703 0 23 -10.298 23 -23 0 -6.462 -2.677 -12.291 -6.969 -16.469 z" opacity="0.1"/></g></svg>
